Numix-Circle/48x48/apps/kgoldrunner.svg

<?xml version="1.0" encoding="UTF-8" standalone="no"?>
<svg
   xmlns:dc="http://purl.org/dc/elements/1.1/"
   xmlns:cc="http://creativecommons.org/ns#"
   xmlns:rdf="http://www.w3.org/1999/02/22-rdf-syntax-ns#"
   xmlns:svg="http://www.w3.org/2000/svg"
   xmlns="http://www.w3.org/2000/svg"
   xmlns:xlink="http://www.w3.org/1999/xlink"
   xmlns:sodipodi="http://sodipodi.sourceforge.net/DTD/sodipodi-0.dtd"
   xmlns:inkscape="http://www.inkscape.org/namespaces/inkscape"
   width="48"
   viewBox="0 0 13.546667 13.546667"
   height="48"
   id="svg2"
   version="1.1"
   inkscape:version="0.91 r13725"
   sodipodi:docname="kgoldrunner-----.svg">
  <metadata
     id="metadata331">
    <rdf:RDF>
      <cc:Work
         rdf:about="">
        <dc:format>image/svg+xml</dc:format>
        <dc:type
           rdf:resource="http://purl.org/dc/dcmitype/StillImage" />
        <dc:title></dc:title>
      </cc:Work>
    </rdf:RDF>
  </metadata>
  <sodipodi:namedview
     pagecolor="#ffffff"
     bordercolor="#666666"
     borderopacity="1"
     objecttolerance="10"
     gridtolerance="10"
     guidetolerance="10"
     inkscape:pageopacity="0"
     inkscape:pageshadow="2"
     inkscape:window-width="1366"
     inkscape:window-height="715"
     id="namedview329"
     showgrid="false"
     inkscape:zoom="1"
     inkscape:cx="25.052158"
     inkscape:cy="20.876787"
     inkscape:window-x="0"
     inkscape:window-y="28"
     inkscape:window-maximized="1"
     inkscape:current-layer="layer2"
     inkscape:snap-to-guides="false"
     showguides="true"
     inkscape:guide-bbox="true">
    <inkscape:grid
       type="xygrid"
       id="grid3308" />
  </sodipodi:namedview>
  <defs
     id="defs4">
    <linearGradient
       id="linearGradient4073">
      <stop
         style="stop-color:#fccc4e;stop-opacity:1;"
         offset="0"
         id="stop4075" />
      <stop
         style="stop-color:#fcd262;stop-opacity:1;"
         offset="1"
         id="stop4077" />
    </linearGradient>
    <radialGradient
       xlink:href="#0-6"
       id="6-9"
       cx="-3"
       cy="24"
       r="10"
       gradientUnits="userSpaceOnUse" />
    <linearGradient
       id="0-6">
      <stop
         stop-color="#91b0c7"
         id="stop7-0" />
      <stop
         offset="1"
         stop-color="#91b0c7"
         stop-opacity="0"
         id="stop9-3" />
    </linearGradient>
    <radialGradient
       r="10"
       cy="24"
       cx="-3"
       gradientUnits="userSpaceOnUse"
       id="radialGradient3922"
       xlink:href="#0-6"
       inkscape:collect="always" />
    <linearGradient
       inkscape:collect="always"
       xlink:href="#linearGradient4073"
       id="linearGradient4079"
       x1="-25.499998"
       y1="15"
       x2="-25.499998"
       y2="11"
       gradientUnits="userSpaceOnUse" />
  </defs>
  <g
     inkscape:groupmode="layer"
     id="layer1"
     inkscape:label="Shadow"
     sodipodi:insensitive="true">
    <path
       style="opacity:0.05;fill:#000000;fill-opacity:1;stroke:none"
       d="M 25,2 C 12.297451,2 2,12.297451 2,25 2,31.367153 4.6007106,37.116628 8.78125,41.28125 12.865755,44.99361 18.29568,47.25 24.25,47.25 c 12.702549,0 23,-10.297451 23,-23 0,-5.95432 -2.25639,-11.384245 -5.96875,-15.46875 C 37.116628,4.6007105 31.367153,2 25,2 z M 41.28125,8.78125 C 45.135604,12.894061 47.5,18.418655 47.5,24.5 c 0,12.702549 -10.297451,23 -23,23 C 18.418655,47.5 12.894061,45.135604 8.78125,41.28125 12.940939,45.4251 18.664604,48 25,48 37.702549,48 48,37.702549 48,25 48,18.664604 45.4251,12.940939 41.28125,8.78125 z"
       transform="scale(0.28222223,0.28222223)"
       id="path3978"
       inkscape:connector-curvature="0" />
    <path
       style="opacity:0.1;fill:#000000;fill-opacity:1;stroke:none"
       d="M 41.28125,8.78125 C 44.99361,12.865755 47.25,18.29568 47.25,24.25 c 0,12.702549 -10.297451,23 -23,23 -5.95432,0 -11.384245,-2.25639 -15.46875,-5.96875 C 12.894061,45.135604 18.418655,47.5 24.5,47.5 c 12.702549,0 23,-10.297451 23,-23 0,-6.081345 -2.364396,-11.605939 -6.21875,-15.71875 z"
       transform="scale(0.28222223,0.28222223)"
       id="path3976"
       inkscape:connector-curvature="0" />
    <path
       transform="matrix(4.3274074,0,0,3.2455556,117.19278,-35.348334)"
       d="m -24,13 a 1.5,2 0 1 1 -3,0 1.5,2 0 1 1 3,0 z"
       sodipodi:ry="2"
       sodipodi:rx="1.5"
       sodipodi:cy="13"
       sodipodi:cx="-25.5"
       id="path3952"
       style="opacity:0.2;fill:#000000;fill-opacity:1;stroke:none"
       sodipodi:type="arc" />
  </g>
  <g
     inkscape:groupmode="layer"
     id="layer2"
     inkscape:label="Base">
    <path
       sodipodi:type="arc"
       style="opacity:1;fill:url(#linearGradient4079);fill-opacity:1.0;stroke:none"
       id="path3942"
       sodipodi:cx="-25.5"
       sodipodi:cy="13"
       sodipodi:rx="1.5"
       sodipodi:ry="2"
       d="m -24,13 a 1.5,2 0 1 1 -3,0 1.5,2 0 1 1 3,0 z"
       transform="matrix(4.3274075,0,0,3.2455556,117.12222,-35.418889)" />
    <path
       style="opacity:0.1;fill:#000000;fill-opacity:1;stroke:none"
       d="M 40.03125 7.53125 C 43.74361 11.615755 46 17.04568 46 23 C 46 35.702549 35.702549 46 23 46 C 17.04568 46 11.615755 43.74361 7.53125 40.03125 C 11.709416 44.322508 17.537578 47 24 47 C 36.702549 47 47 36.702549 47 24 C 47 17.537578 44.322508 11.709416 40.03125 7.53125 z "
       id="path4027"
       transform="scale(0.28222223,0.28222223)" />
    <use
       id="use102"
       xlink:href="#7"
       transform="matrix(0.39511112,0,0,0.39511112,7.9586669,-2.4271114)"
       style="opacity:0.2"
       x="0"
       y="0"
       width="744.09448"
       height="1052.3622" />
    <use
       id="use104-7"
       xlink:href="#7"
       transform="matrix(0.39511112,0,0,0.39511112,7.9586669,-2.7093336)"
       style="fill:#f9f9f9"
       x="0"
       y="0"
       width="744.09448"
       height="1052.3622" />
    <use
       id="use108-3"
       xlink:href="#7"
       transform="matrix(0.31044445,0,0,0.31044445,7.7046669,-0.67733354)"
       style="fill:#355464"
       x="0"
       y="0"
       width="744.09448"
       height="1052.3622" />
    <use
       id="use110"
       xlink:href="#7"
       transform="matrix(0.22577778,0,0,0.22577778,7.4506669,1.3546665)"
       style="fill:#566d80"
       x="0"
       y="0"
       width="744.09448"
       height="1052.3622" />
    <use
       id="use112"
       xlink:href="#7"
       transform="matrix(0.16933334,0,0,0.16933334,7.2813335,2.7093332)"
       style="fill:#355464"
       x="0"
       y="0"
       width="744.09448"
       height="1052.3622" />
    <use
       id="use114"
       xlink:href="#7"
       transform="matrix(0.05644445,0,0,0.05644445,6.9426669,4.5719999)"
       style="fill:url(#6-9)"
       x="0"
       y="0"
       width="744.09448"
       height="1052.3622" />
    <use
       id="use116"
       xlink:href="#7"
       transform="matrix(0.02822222,0,0,0.02822222,6.8580002,6.6604444)"
       style="fill:url(#radialGradient3922)"
       x="0"
       y="0"
       width="744.09448"
       height="1052.3622" />
    <g
       style="fill:#000000;fill-opacity:0.09803922"
       id="g4223"
       transform="matrix(0.28222223,0,0,0.28222223,-0.37041663,0.49388895)" />
    <g
       transform="matrix(0.28222223,0,0,0.28222223,-0.65263887,0.21166669)"
       id="g4296"
       style="fill:#373737;fill-opacity:1" />
    <path
       sodipodi:nodetypes="cccccsccccccccscccccssccccccscccccccss"
       inkscape:connector-curvature="0"
       id="path4181"
       d="M 9.5583109,3.8851696 C 9.298342,3.6451126 8.8978601,3.6663855 8.6637881,3.9330032 8.4297095,4.1996151 8.4505863,4.6105981 8.71055,4.8506613 8.9705192,5.0907186 9.3713527,5.0690478 9.6054241,4.8024297 9.8395025,4.5358178 9.8182756,4.1252323 9.5583109,3.8851696 Z M 10.621856,5.3918468 C 10.46539,5.2473608 10.188538,5.3032375 10.000705,5.5171918 L 9.4916823,6.0964387 8.9096799,5.5588619 C 8.969721,5.4106079 8.937247,5.234604 8.8139785,5.1207716 L 8.2495249,4.5993174 C 8.1262597,4.4854804 7.9518377,4.4707828 7.8143523,4.5475193 L 6.9499318,3.7490321 C 6.7934586,3.6045092 6.5162657,3.6608079 6.3284263,3.8747628 L 5.6505832,4.6469159 C 5.4627481,4.8608786 5.4370709,5.1496292 5.5935325,5.2941157 5.7499968,5.4386009 6.0275913,5.3826853 6.2154242,5.1687309 L 6.7237165,4.5895335 7.2889014,5.1109589 4.8690227,7.8707927 4.1109087,7.1742952 C 3.8896766,6.9710441 3.5992468,6.9347049 3.4598081,7.092718 3.3203694,7.2507314 3.3861471,7.5416485 3.6073791,7.7448996 3.9527072,8.0620987 4.2497274,8.3350402 4.5908994,8.648483 4.7816805,8.824496 5.0843632,8.7923549 5.2717165,8.577955 L 6.1684015,7.5522013 C 6.6622048,8.012942 6.9386024,8.2598619 7.4334849,8.7144635 L 7.5594004,9.936125 c 0.031118,0.30209 0.2244367,0.527016 0.4339036,0.504551 0.2094667,-0.02246 0.3532751,-0.283837 0.3221572,-0.5859273 L 8.1889226,8.6281919 C 8.173901,8.426873 8.0828438,8.271072 7.948521,8.1436232 L 7.2418837,7.4944188 8.4181915,6.1542134 9.2657981,6.936545 C 9.4222626,7.0810305 9.6991135,7.025159 9.8869488,6.8112 L 10.565156,6.0386486 c 0.187833,-0.2139597 0.213162,-0.5023184 0.0567,-0.6468018 z"
       style="fill:#000000;fill-opacity:0.09803922" />
    <path
       style="fill:#373737;fill-opacity:1"
       d="M 9.2760887,3.6029474 C 9.0161198,3.3628904 8.6156379,3.3841633 8.3815659,3.650781 8.1474873,3.9173929 8.1683641,4.3283759 8.4283278,4.5684391 8.688297,4.8084964 9.0891305,4.7868256 9.3232019,4.5202075 9.5572803,4.2535956 9.5360534,3.8430101 9.2760887,3.6029474 Z M 10.339634,5.1096246 C 10.183168,4.9651386 9.9063153,5.0210153 9.7184831,5.2349696 L 9.2094601,5.8142165 8.6274577,5.2766397 C 8.6874988,5.1283857 8.6550248,4.9523818 8.5317563,4.8385494 L 7.9673027,4.3170952 C 7.8440375,4.2032582 7.6696155,4.1885606 7.5321301,4.2652971 L 6.6677096,3.4668099 C 6.5112364,3.322287 6.2340435,3.3785857 6.0462041,3.5925406 L 5.368361,4.3646937 C 5.1805259,4.5786564 5.1548487,4.867407 5.3113103,5.0118935 5.4677746,5.1563787 5.7453691,5.1004631 5.933202,4.8865087 L 6.4414943,4.3073113 7.0066792,4.8287367 4.5868005,7.5885705 3.8286865,6.892073 C 3.6074544,6.6888219 3.3170246,6.6524827 3.1775859,6.8104958 3.0381472,6.9685092 3.1039249,7.2594263 3.3251569,7.4626774 3.670485,7.7798765 3.9675052,8.052818 4.3086772,8.3662608 4.4994583,8.5422738 4.802141,8.5101327 4.9894943,8.2957328 L 5.8861793,7.2699791 C 6.3799826,7.7307198 6.6563802,7.9776397 7.1512627,8.4322413 L 7.2771782,9.6539028 C 7.3082962,9.955993 7.5016149,10.180919 7.7110818,10.158454 7.9205485,10.135994 8.0643569,9.874617 8.033239,9.5725265 L 7.9067004,8.3459697 C 7.8916788,8.1446508 7.8006216,7.9888498 7.6662988,7.861401 L 6.9596615,7.2121966 8.1359693,5.8719912 8.9835759,6.6543228 c 0.1564645,0.1444855 0.4333154,0.088614 0.6211507,-0.125345 L 10.282934,5.7564264 c 0.187833,-0.2139597 0.213162,-0.5023184 0.0567,-0.6468018 z"
       id="rect3371"
       inkscape:connector-curvature="0"
       sodipodi:nodetypes="cccccsccccccccscccccssccccccscccccccss" />
  </g>
  <g
     inkscape:groupmode="layer"
     id="layer3"
     inkscape:label="Symbol" />
</svg>

<svg xmlns="http://www.w3.org/2000/svg" width="48" viewBox="0 0 13.546667 13.546667" height="48"><defs><radialGradient cx="-3" cy="24" r="10" gradientUnits="userSpaceOnUse"><stop stop-color="#91b0c7"/><stop offset="1" stop-color="#91b0c7" stop-opacity="0"/></radialGradient><linearGradient id="linearGradient4079" y1="15" x2="0" y2="11" gradientUnits="userSpaceOnUse"><stop stop-color="#fccc4e" stop-opacity="1"/><stop offset="1" stop-color="#fcd262" stop-opacity="1"/></linearGradient></defs><g><path d="m 25 2 c -12.703 0 -23 10.297 -23 23 0 6.367 2.601 12.12 6.781 16.281 4.085 3.712 9.514 5.969 15.469 5.969 c 12.703 0 23 -10.297 23 -23 0 -5.954 -2.256 -11.384 -5.969 -15.469 c -4.165 -4.181 -9.914 -6.781 -16.281 -6.781 z m 16.281 6.781 c 3.854 4.113 6.219 9.637 6.219 15.719 c 0 12.703 -10.297 23 -23 23 c -6.081 0 -11.606 -2.364 -15.719 -6.219 4.16 4.144 9.883 6.719 16.219 6.719 12.703 0 23 -10.297 23 -23 0 -6.335 -2.575 -12.06 -6.719 -16.219 z" transform="scale(0.28222223,0.28222223)" opacity="0.05" fill="#000" stroke="none" fill-opacity="1"/><path d="m 41.28 8.781 c 3.712 4.085 5.969 9.514 5.969 15.469 c 0 12.703 -10.297 23 -23 23 -5.954 0 -11.384 -2.256 -15.469 -5.969 c 4.113 3.854 9.637 6.219 15.719 6.219 c 12.703 0 23 -10.297 23 -23 0 -6.081 -2.364 -11.606 -6.219 -15.719 z" transform="scale(0.28222223,0.28222223)" opacity="0.1" fill="#000" stroke="none" fill-opacity="1"/><path transform="matrix(4.3274074,0,0,3.2455556,117.19278,-35.348334)" d="m -24 13 a 1.5 2 0 1 1 -3 0 1.5 2 0 1 1 3 0 z" opacity="0.2" fill="#000" stroke="none" fill-opacity="1"/></g><g><path d="m -24 13 a 1.5 2 0 1 1 -3 0 1.5 2 0 1 1 3 0 z" transform="matrix(4.3274075,0,0,3.2455556,117.12222,-35.418889)" opacity="1" fill="url(#linearGradient4079)" stroke="none" fill-opacity="1"/><path d="m 40.03 7.531 c 3.712 4.085 5.969 9.514 5.969 15.469 c 0 12.703 -10.297 23 -23 23 c -5.954 0 -11.384 -2.256 -15.469 -5.969 c 4.178 4.291 10.01 6.969 16.469 6.969 c 12.703 0 23 -10.297 23 -23 c 0 -6.462 -2.677 -12.291 -6.969 -16.469 z" transform="scale(0.28222223,0.28222223)" opacity="0.1" fill="#000" stroke="none" fill-opacity="1"/><path d="m 9.558 3.885 c -0.26 -0.24 -0.66 -0.219 -0.895 0.048 -0.234 0.267 -0.213 0.678 0.047 0.918 0.26 0.24 0.661 0.218 0.895 -0.048 0.234 -0.267 0.213 -0.677 -0.047 -0.917 m 1.064 1.507 c -0.156 -0.144 -0.433 -0.089 -0.621 0.125 l -0.509 0.579 -0.582 -0.538 c 0.06 -0.148 0.028 -0.324 -0.096 -0.438 l -0.564 -0.521 c -0.123 -0.114 -0.298 -0.129 -0.435 -0.052 l -0.864 -0.798 c -0.156 -0.145 -0.434 -0.088 -0.622 0.126 l -0.678 0.772 c -0.188 0.214 -0.214 0.503 -0.057 0.647 0.156 0.144 0.434 0.089 0.622 -0.125 l 0.508 -0.579 0.565 0.521 -2.42 2.76 -0.758 -0.696 c -0.221 -0.203 -0.512 -0.24 -0.651 -0.082 -0.139 0.158 -0.074 0.449 0.148 0.652 0.345 0.317 0.642 0.59 0.984 0.904 0.191 0.176 0.493 0.144 0.681 -0.071 l 0.897 -1.026 c 0.494 0.461 0.77 0.708 1.265 1.162 l 0.126 1.222 c 0.031 0.302 0.224 0.527 0.434 0.505 0.209 -0.022 0.353 -0.284 0.322 -0.586 l -0.127 -1.227 c -0.015 -0.201 -0.106 -0.357 -0.24 -0.485 l -0.707 -0.649 1.176 -1.34 0.848 0.782 c 0.156 0.144 0.433 0.089 0.621 -0.125 l 0.678 -0.773 c 0.188 -0.214 0.213 -0.502 0.057 -0.647 z" fill="#000" fill-opacity="0.098"/><path d="m 9.276 3.603 c -0.26 -0.24 -0.66 -0.219 -0.895 0.048 -0.234 0.267 -0.213 0.678 0.047 0.918 0.26 0.24 0.661 0.218 0.895 -0.048 0.234 -0.267 0.213 -0.677 -0.047 -0.917 m 1.064 1.507 c -0.156 -0.144 -0.433 -0.089 -0.621 0.125 l -0.509 0.579 -0.582 -0.538 c 0.06 -0.148 0.028 -0.324 -0.096 -0.438 l -0.564 -0.521 c -0.123 -0.114 -0.298 -0.129 -0.435 -0.052 l -0.864 -0.798 c -0.156 -0.145 -0.434 -0.088 -0.622 0.126 l -0.678 0.772 c -0.188 0.214 -0.214 0.503 -0.057 0.647 0.156 0.144 0.434 0.089 0.622 -0.125 l 0.508 -0.579 0.565 0.521 -2.42 2.76 -0.758 -0.696 c -0.221 -0.203 -0.512 -0.24 -0.651 -0.082 -0.139 0.158 -0.074 0.449 0.148 0.652 0.345 0.317 0.642 0.59 0.984 0.904 0.191 0.176 0.493 0.144 0.681 -0.071 l 0.897 -1.026 c 0.494 0.461 0.77 0.708 1.265 1.162 l 0.126 1.222 c 0.031 0.302 0.224 0.527 0.434 0.505 0.209 -0.022 0.353 -0.284 0.322 -0.586 l -0.127 -1.227 c -0.015 -0.201 -0.106 -0.357 -0.24 -0.485 l -0.707 -0.649 1.176 -1.34 0.848 0.782 c 0.156 0.144 0.433 0.089 0.621 -0.125 l 0.678 -0.773 c 0.188 -0.214 0.213 -0.502 0.057 -0.647 z" fill="#373737" fill-opacity="1"/></g></svg>
